src/components/icons/mittcampus_logga.svg

<?xml version="1.0" encoding="UTF-8"?>
<svg width="188px" height="34px" viewBox="0 0 188 34" version="1.1" xmlns="http://www.w3.org/2000/svg" xmlns:xlink="http://www.w3.org/1999/xlink">
    <!-- Generator: Sketch 50.2 (55047) - http://www.bohemiancoding.com/sketch -->
    <title>Group 24</title>
    <desc>Created with Sketch.</desc>
    <defs></defs>
    <g id="Page-1" stroke="none" stroke-width="1" fill="none" fill-rule="evenodd">
        <g id="log-in" transform="translate(-94.000000, -150.000000)">
            <g id="Group-24" transform="translate(94.000000, 150.000000)">
                <path d="M187.992749,6.21127692 L187.992749,33.9997385 L181.278463,33.9997385 L181.278463,1.68666154 C183.130263,3.67827692 185.427891,5.22658462 187.992749,6.21127692" id="Fill-2" fill="#6EC81E"></path>
                <path d="M0,19.0556923 C2.256,18.6437692 2.7354,17.6826154 2.7354,15.1286923 L2.7354,4.03684615 C2.7354,2.36169231 2.0304,1.26453846 0,1.18084615 L0,0.687846154 L6.34365714,0.687846154 L11.0799143,14.909 L11.1927143,14.909 L15.7329143,0.687846154 L21.7099714,0.687846154 L21.7099714,1.18084615 C19.6795714,1.26453846 19.2283714,1.83992308 19.2283714,2.91092308 L19.2283714,17.2981538 C19.2283714,18.3966154 19.6795714,18.9458462 21.7099714,19.0282308 L21.7099714,19.55 L13.8999143,19.55 L13.8999143,19.0282308 C15.8175143,18.9458462 16.1841143,18.4515385 16.1841143,17.2981538 L16.1841143,2.499 L16.0431143,2.499 L10.5172571,19.5774615 L9.55845714,19.5774615 L3.69285714,2.499 L3.5532,2.499 L3.5532,15.1286923 C3.5532,17.6826154 3.94665714,18.6437692 6.28725714,19.0556923 L6.28725714,19.55 L0,19.55 L0,19.0556923 Z" id="Fill-4" fill="#000000"></path>
                <path d="M23.4337971,19.0288846 C25.5205971,18.9465 25.9717971,18.3972692 25.9717971,17.2988077 L25.9717971,2.91157692 C25.9717971,1.83926923 25.5205971,1.26388462 23.4337971,1.1815 L23.4337971,0.6885 L31.5540543,0.6885 L31.5540543,1.1815 C29.4672543,1.26388462 29.0442543,1.83926923 29.0442543,2.91157692 L29.0442543,17.2988077 C29.0442543,18.3972692 29.4672543,18.9465 31.5540543,19.0288846 L31.5540543,19.5493462 L23.4337971,19.5493462 L23.4337971,19.0288846 Z" id="Fill-6" fill="#000000"></path>
                <path d="M36.6301886,19.0288846 C38.7733886,18.9465 39.3655886,18.3972692 39.3655886,17.2988077 L39.3655886,1.34757692 L38.5195886,1.34757692 C36.6583886,1.34757692 35.4739886,3.02142308 34.0075886,6.72873077 L33.4153886,6.69996154 L33.5845886,0.6885 L48.2177029,0.6885 L48.3869029,6.69996154 L47.7947029,6.72873077 C46.4142457,3.18619231 45.2298457,1.34757692 43.2840457,1.34757692 L42.4380457,1.34757692 L42.4380457,17.2988077 C42.4380457,18.3972692 43.0302457,18.9465 45.1734457,19.0288846 L45.1734457,19.5493462 L36.6301886,19.5493462 L36.6301886,19.0288846 Z" id="Fill-8" fill="#000000"></path>
                <path d="M53.3530571,19.0288846 C55.4962571,18.9465 56.0884571,18.3972692 56.0884571,17.2988077 L56.0884571,1.34757692 L55.2424571,1.34757692 C53.3812571,1.34757692 52.1968571,3.02142308 50.7304571,6.72873077 L50.1382571,6.69996154 L50.3074571,0.6885 L64.9405714,0.6885 L65.1097714,6.69996154 L64.5175714,6.72873077 C63.1371143,3.18619231 61.9527143,1.34757692 60.0069143,1.34757692 L59.1609143,1.34757692 L59.1609143,17.2988077 C59.1609143,18.3972692 59.7531143,18.9465 61.8963143,19.0288846 L61.8963143,19.5493462 L53.3530571,19.5493462 L53.3530571,19.0288846 Z" id="Fill-10" fill="#000000"></path>
                <path d="M71.5366857,10.2697 C71.5366857,4.4217 75.4551429,0.248853846 79.9671429,0.248853846 C81.6309429,0.248853846 82.955,0.769315385 84.0266,1.45716154 L84.9854,0.139007692 L85.493,0.139007692 L85.493,6.75462308 L84.929,6.75462308 C83.5472,2.99500769 82.0257429,0.934084615 79.7979429,0.934084615 C77.2599429,0.934084615 75.0052857,3.57039231 75.0052857,10.0238538 C75.0052857,16.3373923 77.7393429,18.8363923 80.3901429,18.8363923 C82.8986,18.8363923 84.5624,16.8866231 85.6058,13.8933154 L86.2826,14.1679308 C85.1828,17.4083923 83.237,19.9610077 79.5159429,19.9610077 C74.9206857,19.9610077 71.5366857,16.3099308 71.5366857,10.2697" id="Fill-12" fill="#000000"></path>
                <path d="M96.1814714,11.8622077 L93.8690714,3.87351538 L93.7562714,3.87351538 L91.1632143,11.8622077 L96.1814714,11.8622077 Z M96.4070714,12.5487462 L90.9376143,12.5487462 L90.1198143,15.0477462 C89.1610143,17.9573615 89.3584143,18.6439 91.5862143,19.0558231 L91.5862143,19.5501308 L86.0039571,19.5501308 L86.0039571,19.0558231 C87.6664143,18.6713615 88.3163571,17.7115154 89.2174143,15.0477462 L94.1806143,0.276053846 L95.7866714,0.276053846 L100.778071,16.4469769 C101.342071,18.2869 101.736871,18.7537462 103.568529,19.0558231 L103.568529,19.5501308 L95.5610714,19.5501308 L95.5610714,19.0558231 C97.8170714,18.9185154 98.1272714,18.3705923 97.6760714,16.8039769 L96.4070714,12.5487462 Z" id="Fill-14" fill="#000000"></path>
                <path d="M103.741623,19.0556923 C105.997623,18.6437692 106.47568,17.6826154 106.47568,15.1286923 L106.47568,4.03684615 C106.47568,2.36169231 105.772023,1.26453846 103.741623,1.18084615 L103.741623,0.687846154 L110.08528,0.687846154 L114.821537,14.909 L114.934337,14.909 L119.474537,0.687846154 L125.451594,0.687846154 L125.451594,1.18084615 C123.421194,1.26453846 122.969994,1.83992308 122.969994,2.91092308 L122.969994,17.2981538 C122.969994,18.3966154 123.421194,18.9458462 125.451594,19.0282308 L125.451594,19.55 L117.641537,19.55 L117.641537,19.0282308 C119.557794,18.9458462 119.925737,18.4515385 119.925737,17.2981538 L119.925737,2.499 L119.783394,2.499 L114.257537,19.5774615 L113.298737,19.5774615 L107.43448,2.499 L107.294823,2.499 L107.294823,15.1286923 C107.294823,17.6826154 107.68828,18.6437692 110.02888,19.0556923 L110.02888,19.55 L103.741623,19.55 L103.741623,19.0556923 Z" id="Fill-16" fill="#000000"></path>
                <path d="M134.054206,10.7919923 C137.156206,10.7919923 137.888063,8.89714615 137.888063,5.96006923 C137.888063,3.32376154 137.099806,1.34653077 134.138806,1.34653077 L132.560949,1.34653077 L132.560949,10.7919923 L134.054206,10.7919923 Z M126.977349,19.0291462 C129.007749,18.9454538 129.458949,18.3962231 129.458949,17.2990692 L129.458949,2.91183846 C129.458949,1.83953077 129.007749,1.26414615 126.977349,1.18045385 L126.977349,0.687453846 L134.251606,0.687453846 C139.410863,0.687453846 141.187463,3.02168462 141.187463,5.87637692 C141.187463,8.53883846 139.327606,11.4772231 134.138806,11.4772231 L132.560949,11.4772231 L132.560949,17.2990692 C132.560949,18.4511462 132.982606,18.9454538 135.154006,19.0291462 L135.154006,19.5496077 L126.977349,19.5496077 L126.977349,19.0291462 Z" id="Fill-18" fill="#000000"></path>
                <path d="M144.798406,14.3064154 L144.798406,2.91118462 C144.798406,1.84018462 144.347206,1.26349231 142.316806,1.18110769 L142.316806,0.688107692 L150.184606,0.688107692 L150.184606,1.18110769 C148.210606,1.26349231 147.872206,1.78656923 147.872206,2.91118462 L147.872206,14.0043385 C147.872206,17.6279538 149.703863,18.9461077 152.382863,18.9461077 C153.595463,18.9461077 154.667063,18.5067231 155.343863,17.7116462 C156.161663,16.7766462 156.556463,15.5683385 156.556463,13.4812615 L156.556463,5.08064615 C156.556463,2.52672308 155.96292,1.53810769 153.539063,1.15364615 L153.539063,0.688107692 L160.02372,0.688107692 L160.02372,1.15364615 C157.740863,1.59303077 157.402463,2.52672308 157.402463,5.08064615 L157.402463,13.8670308 C157.402463,17.4919538 155.569463,19.9896462 151.312606,19.9896462 C147.167206,19.9896462 144.798406,18.0124154 144.798406,14.3064154" id="Fill-20" fill="#000000"></path>
                <path d="M161.330991,13.4277769 L161.894991,13.4277769 C163.557449,17.2148538 165.108449,19.2483154 167.420849,19.2483154 C169.760106,19.2483154 170.775306,17.4907769 170.775306,15.7881615 C170.775306,13.3179308 169.083306,12.3829308 166.377449,11.2844692 C163.952249,10.2958538 161.556591,9.22616154 161.556591,6.06939231 C161.556591,2.52685385 164.038191,0.275007692 167.336249,0.275007692 C168.718049,0.275007692 170.015249,0.688238462 170.861249,1.12762308 L171.677706,0.139007692 L172.185306,0.139007692 L172.185306,6.09685385 L171.594449,6.09685385 C170.184449,2.47193077 168.774449,0.961546154 166.969649,0.961546154 C165.362249,0.961546154 163.981791,2.11623846 163.981791,4.25562308 C163.981791,6.50877692 165.672449,7.38754615 168.238649,8.40231538 C170.635649,9.39093077 173.003106,10.5443154 173.003106,13.7285462 C173.003106,16.6669308 171.368849,19.9348538 167.138849,19.9348538 C165.757049,19.9348538 164.177849,19.4680077 163.106249,18.8363923 L161.809049,20.0447 L161.330991,20.0447 L161.330991,13.4277769 Z" id="Fill-22" fill="#000000"></path>
                <polygon id="Fill-1" fill="#6EC81E" points="1.34285714 27.4615385 8.31094286 34 182.627229 34 181.284371 27.4615385"></polygon>
            </g>
        </g>
    </g>
</svg>

<svg width="188" height="34" xmlns="http://www.w3.org/2000/svg"><g fill="none" fill-rule="evenodd"><path d="M187.993 6.211V34h-6.715V1.687a17.946 17.946 0 0 0 6.715 4.524" fill="#6EC81E"/><path d="M0 19.056c2.256-.412 2.735-1.373 2.735-3.927V4.037C2.735 2.362 2.03 1.265 0 1.18V.688h6.344l4.736 14.221h.113L15.733.688h5.977v.493c-2.03.084-2.482.659-2.482 1.73v14.387c0 1.099.452 1.648 2.482 1.73v.522H13.9v-.522c1.918-.082 2.284-.576 2.284-1.73V2.5h-.14l-5.527 17.078h-.959L3.693 2.5h-.14v12.63c0 2.554.394 3.515 2.734 3.927v.494H0v-.494zM23.434 19.029c2.087-.082 2.538-.632 2.538-1.73V2.912c0-1.073-.451-1.648-2.538-1.73V.689h8.12v.493c-2.087.082-2.51.657-2.51 1.73v14.387c0 1.098.423 1.648 2.51 1.73v.52h-8.12v-.52zM36.63 19.029c2.143-.082 2.736-.632 2.736-1.73V1.348h-.846c-1.862 0-3.046 1.673-4.512 5.38l-.593-.028.17-6.011h14.633l.169 6.011-.592.029c-1.38-3.543-2.565-5.381-4.511-5.381h-.846v15.95c0 1.1.592 1.649 2.735 1.73v.521H36.63v-.52zM53.353 19.029c2.143-.082 2.735-.632 2.735-1.73V1.348h-.846c-1.86 0-3.045 1.673-4.512 5.38l-.592-.028.17-6.011H64.94L65.11 6.7l-.592.029c-1.38-3.543-2.565-5.381-4.511-5.381h-.846v15.95c0 1.1.592 1.649 2.735 1.73v.521h-8.543v-.52zM71.537 10.27c0-5.848 3.918-10.021 8.43-10.021 1.664 0 2.988.52 4.06 1.208L84.985.14h.508v6.616h-.564c-1.382-3.76-2.903-5.82-5.131-5.82-2.538 0-4.793 2.635-4.793 9.089 0 6.313 2.734 8.812 5.385 8.812 2.509 0 4.172-1.95 5.216-4.943l.677.275c-1.1 3.24-3.046 5.793-6.767 5.793-4.595 0-7.98-3.651-7.98-9.691M96.181 11.862L93.87 3.874h-.113l-2.593 7.988h5.018zm.226.687h-5.47l-.817 2.499c-.959 2.91-.762 3.596 1.466 4.008v.494h-5.582v-.494c1.662-.385 2.312-1.344 3.213-4.008L94.181.276h1.606l4.991 16.171c.564 1.84.959 2.307 2.79 2.609v.494h-8.007v-.494c2.256-.137 2.566-.685 2.115-2.252l-1.269-4.255zM103.742 19.056c2.256-.412 2.734-1.373 2.734-3.927V4.037c0-1.675-.704-2.772-2.734-2.856V.688h6.343l4.737 14.221h.112l4.54-14.221h5.978v.493c-2.03.084-2.482.659-2.482 1.73v14.387c0 1.099.451 1.648 2.482 1.73v.522h-7.81v-.522c1.916-.082 2.284-.576 2.284-1.73V2.5h-.143l-5.525 17.078h-.96L107.435 2.5h-.14v12.63c0 2.554.394 3.515 2.735 3.927v.494h-6.287v-.494zM134.054 10.792c3.102 0 3.834-1.895 3.834-4.832 0-2.636-.788-4.613-3.75-4.613h-1.577v9.445h1.493zm-7.077 8.237c2.03-.084 2.482-.633 2.482-1.73V2.912c0-1.072-.451-1.648-2.482-1.732V.687h7.275c5.159 0 6.935 2.335 6.935 5.19 0 2.662-1.86 5.6-7.048 5.6h-1.578V17.3c0 1.152.422 1.646 2.593 1.73v.52h-8.177v-.52zM144.798 14.306V2.911c0-1.07-.45-1.648-2.481-1.73V.688h7.868v.493c-1.974.082-2.313.606-2.313 1.73v11.093c0 3.624 1.832 4.942 4.51 4.942 1.213 0 2.285-.44 2.962-1.234.818-.935 1.212-2.144 1.212-4.23V5.08c0-2.554-.593-3.543-3.017-3.927V.688h6.485v.466c-2.283.439-2.622 1.373-2.622 3.927v8.786c0 3.625-1.833 6.123-6.09 6.123-4.145 0-6.514-1.978-6.514-5.684M161.331 13.428h.564c1.662 3.787 3.213 5.82 5.526 5.82 2.34 0 3.354-1.757 3.354-3.46 0-2.47-1.692-3.405-4.398-4.504-2.425-.988-4.82-2.058-4.82-5.215 0-3.542 2.481-5.794 5.78-5.794 1.381 0 2.678.413 3.524.853l.817-.989h.507v5.958h-.59c-1.41-3.625-2.82-5.135-4.625-5.135-1.608 0-2.988 1.154-2.988 3.294 0 2.253 1.69 3.132 4.257 4.146 2.397.989 4.764 2.142 4.764 5.327 0 2.938-1.634 6.206-5.864 6.206-1.382 0-2.961-.467-4.033-1.099l-1.297 1.209h-.478v-6.617z" fill="#000"/><polygon fill="#6EC81E" points="1.34285714 27.4615385 8.31094286 34 182.627229 34 181.284371 27.4615385"/></g></svg>
